X:721
T:72. BRIAN BORU'S MARCH
R:march
O: Ireland
M:6/8
K:Ador
ed|\
|:"Am"cBA Aed|cBA Adc|"G"BAG Gdc|BAG Ged|
"Am"cBA Aed|cBA A2G|Acd "E7"e2d|1 "Am"cAA Aed:|2 "Am"cAA A2G||
|:"Am"Acd e2"Am7"d|e2d edc|"G"GBc d2g|d2g dBG|
"Am"Acd e2d|e2d edc|Acd "E7"e2d|1 "Am"cAA A2G:|2 "Am"cAA A2B||
|:"Am"cBA a2A|cBA a2A|"G"BAG g2G|BAG g2G|
"Am"cBA a2A|cBA a2A|Acd "E7"e2d|1 "Am"cAA A2B:|2 "Am"cAA A2||
